pix_core/t/print.svg

<svg preserveAspectRatio="xMinYMid meet" viewBox="0 0 512 512" xmlns="http://www.w3.org/2000/svg"><path d="m128 0c-35.3 0-64 28.7-64 64v96h64v-96h226.7l29.3 29.3v66.7h64v-66.7c0-17-6.7-33.3-18.7-45.3l-29.3-29.3c-12-12-28.3-18.7-45.3-18.7zm256 352v32 64h-256v-64-16-16zm64 32h32c17.7 0 32-14.3 32-32v-96c0-35.3-28.7-64-64-64h-384c-35.3 0-64 28.7-64 64v96c0 17.7 14.3 32 32 32h32v64c0 35.3 28.7 64 64 64h256c35.3 0 64-28.7 64-64zm-16-136a24 24 0 1 1 0 48 24 24 0 1 1 0-48z" fill="#fff"/></svg>

<svg xmlns="http://www.w3.org/2000/svg" viewBox="0 0 512 512" preserveAspectRatio="xMinYMid meet"><!--!Font Awesome Free 6.5.2 by @fontawesome - https://fontawesome.com License - https://fontawesome.com/license/free Copyright 2024 Fonticons, Inc.--><path fill="#fff" d="M128 0C92.7 0 64 28.7 64 64v96h64V64H354.7L384 93.3V160h64V93.3c0-17-6.7-33.3-18.7-45.3L400 18.7C388 6.7 371.7 0 354.7 0H128zM384 352v32 64H128V384 368 352H384zm64 32h32c17.7 0 32-14.3 32-32V256c0-35.3-28.7-64-64-64H64c-35.3 0-64 28.7-64 64v96c0 17.7 14.3 32 32 32H64v64c0 35.3 28.7 64 64 64H384c35.3 0 64-28.7 64-64V384zM432 248a24 24 0 1 1 0 48 24 24 0 1 1 0-48z"/></svg>
